img/kotlin-logo.svg

<svg width="31" height="31" viewBox="0 0 31 31" fill="none" xmlns="http://www.w3.org/2000/svg">
<path d="M2.30353 2.375V28.625H28.5535V28.5809L22.0379 22.0184L15.5223 15.4494L22.0379 8.87563L28.4954 2.375H2.30353Z" fill="url(#paint0_linear_85_9895)"/>
<path d="M15.7267 2.375L2.30353 15.7981V28.625H2.41978L15.5523 15.4925L15.5232 15.4634L22.0379 8.89062L28.4954 2.375H15.7267Z" fill="url(#paint1_linear_85_9895)"/>
<defs>
<linearGradient id="paint0_linear_85_9895" x1="2.01066" y1="28.8836" x2="28.5813" y2="2.01656" gradientUnits="userSpaceOnUse">
<stop stop-color="#0296D8"/>
<stop offset="1" stop-color="#8371D9"/>
</linearGradient>
<linearGradient id="paint1_linear_85_9895" x1="-1.25521" y1="24.6976" x2="25.9249" y2="0.016518" gradientUnits="userSpaceOnUse">
<stop stop-color="#CB55C0"/>
<stop offset="1" stop-color="#F28E0E"/>
</linearGradient>
</defs>
</svg>

<svg xmlns="http://www.w3.org/2000/svg" width="31" height="31" fill="none"><path fill="url(#a)" d="M2.304 2.375v26.25h26.25v-.044l-6.516-6.563-6.516-6.569 6.516-6.573 6.457-6.501H2.304Z"/><path fill="url(#b)" d="M15.727 2.375 2.304 15.798v12.827h.116l13.132-13.133-.029-.029 6.515-6.572 6.457-6.516H15.727Z"/><defs><linearGradient id="a" x1="2.011" x2="28.581" y1="28.884" y2="2.017" gradientUnits="userSpaceOnUse"><stop stop-color="#0296D8"/><stop offset="1" stop-color="#8371D9"/></linearGradient><linearGradient id="b" x1="-1.255" x2="25.925" y1="24.698" y2=".017" gradientUnits="userSpaceOnUse"><stop stop-color="#CB55C0"/><stop offset="1" stop-color="#F28E0E"/></linearGradient></defs></svg>
